X: 11794
T: Elk's Festival, The
R: hornpipe
M: 4/4
K: Dmajor
|:FG|AFAd fedc|B^ABe gfed|cAce ba^ga|bafd A2 FG|
A2 Fd f2 dc|B2 Ge g2 ag|fafd Bgec|dAFA D2:|
|:fg|a^gba fdAd|gfag ecAc|fdge afbg|ecdB A2 fg|
a2 fd AdFd|g2 ec AcEc|fdAF Egec|d2 A2 D2:|

